Sources/FrostedUI/Resources/Icons.xcassets/truck12.imageset/truck-12.svg

<svg width="13" height="12" viewBox="0 0 13 12" fill="none" xmlns="http://www.w3.org/2000/svg" data-fui-icon="true">
  <path
    d="M7.10645 1.6875C8.42939 1.68774 9.45523 2.82096 9.34473 4.125H9.80176C10.4431 4.125 11.0287 4.48886 11.3135 5.06348L11.8555 6.15625C12.007 6.46198 12.0629 6.80674 12.0146 7.14453L11.7949 8.67578C11.687 9.43134 11.0891 10.0081 10.3506 10.1074C10.0653 10.7788 9.40052 11.25 8.625 11.25C7.8563 11.25 7.19666 10.787 6.90723 10.125H5.84277C5.55334 10.787 4.8937 11.25 4.125 11.25C3.35134 11.25 2.68784 10.7811 2.40137 10.1123C1.25888 9.98974 0.417905 8.94009 0.583008 7.77344L0.708008 6.89453C0.766268 6.48465 1.14569 6.19979 1.55566 6.25781C1.96541 6.31617 2.25133 6.69559 2.19336 7.10547L2.06836 7.9834C2.03038 8.25174 2.18861 8.49445 2.42578 8.58496C2.72404 7.94456 3.37198 7.5 4.125 7.5C4.8937 7.5 5.55334 7.96302 5.84277 8.625H6.90723C7.00873 8.39286 7.15546 8.18542 7.33691 8.01367L7.85059 4.0332C7.90825 3.58487 7.55845 3.18775 7.10645 3.1875H2.25C1.83599 3.18726 1.5 2.85157 1.5 2.4375C1.5 2.02343 1.83599 1.68774 2.25 1.6875H7.10645ZM4.125 9C3.91789 9 3.75 9.16789 3.75 9.375C3.75 9.58211 3.91789 9.75 4.125 9.75C4.33211 9.75 4.5 9.58211 4.5 9.375C4.5 9.16789 4.33211 9 4.125 9ZM8.625 9C8.41789 9 8.25 9.16789 8.25 9.375C8.25 9.58211 8.41789 9.75 8.625 9.75C8.83211 9.75 9 9.58211 9 9.375C9 9.16789 8.83211 9 8.625 9ZM8.91211 7.52344C9.51533 7.61621 10.0217 7.99609 10.291 8.51953C10.2996 8.50209 10.3077 8.48403 10.3105 8.46387L10.5293 6.93164C10.5346 6.89424 10.5285 6.85611 10.5117 6.82227L9.96973 5.72949C9.93808 5.66565 9.87302 5.625 9.80176 5.625H9.15723L8.91211 7.52344ZM4.3125 4C4.72671 4 5.0625 4.33579 5.0625 4.75C5.0625 5.16421 4.72671 5.5 4.3125 5.5H0.75C0.335786 5.5 0 5.16421 0 4.75C0 4.33579 0.335786 4 0.75 4H4.3125Z"
    fill="currentColor"
  />
</svg>

<svg xmlns="http://www.w3.org/2000/svg" width="13" height="12" fill="none" data-fui-icon="true" viewBox="0 0 13 12"><path fill="currentColor" d="M7.106 1.688a2.247 2.247 0 0 1 2.239 2.437h.457c.641 0 1.227.364 1.511.938l.542 1.093c.152.306.208.65.16.989l-.22 1.53a1.685 1.685 0 0 1-1.444 1.432 1.875 1.875 0 0 1-3.444.018H5.843a1.874 1.874 0 0 1-3.442-.013A2.06 2.06 0 0 1 .583 7.773l.125-.878a.75.75 0 0 1 1.485.21l-.125.878a.56.56 0 0 0 .358.602 1.874 1.874 0 0 1 3.417.04h1.064c.102-.232.248-.44.43-.611l.514-3.98a.75.75 0 0 0-.745-.846H2.25a.75.75 0 0 1 0-1.5zM4.125 9a.375.375 0 1 0 0 .75.375.375 0 0 0 0-.75m4.5 0a.375.375 0 1 0 0 .75.375.375 0 0 0 0-.75m.287-1.477c.603.093 1.11.473 1.379.997a.2.2 0 0 0 .02-.056l.218-1.532a.2.2 0 0 0-.017-.11L9.97 5.73a.19.19 0 0 0-.168-.104h-.645zM4.312 4a.75.75 0 0 1 0 1.5H.75a.75.75 0 0 1 0-1.5z"/></svg>
